X: 1
T: Donna's Waltz
C: by Phil Cunningham
S: recording of Phil with Silly Wizard, 1988
R: waltz
S: Tune set for RSCDS Cambrigde Class online, 2022-2-7
Z: 2022 John Chambers <jc:trillian.mit.edu>
N: Note: The A2 part is written again after the B part.
M: 3/4
L: 1/8
P: Play A1A2 BA2 (32 bars)or A1A2 BA2 BA2 (48 bars)
K: A
"^A"|: d c>B ||\
"D"A2 A>B A>F | "Bm"D2 D>E F>D |\
"A"E2 e>c B>A | "D"B3 d c>B ||\
"D"A2 A>B A>F |
"Bm"D2 D>E F>D |\
[1 "A"E2 F2 A2 |  "E"E3 :|\
[2 "E"E2 F2 A2 | "A"A2 c2 e2 \
"^B"[|\
"F#m"a4 a>f | "E"g3 a g>e |\
"D"f3 g f>e |
"A"c4 c>e ||\
"D"f3 g f>e | "F#m"c>B A2 c2 |\
"Bm"B>A F2 c2 | "E"B3 "^A2"|: d c>B ||\
"D"A2 A>B A>F |
"Bm"D2 D>E F>D |\
"A"E2 e>c B>A | "D"B3 d c>B ||\
"D"A2 A>B A>F | "Bm"D2 D>E F>D |\
"E"E2 F2 A2 | "A"A3 |]
